packages/core/src/svgs/tru.svg

<svg width="24" height="24" viewBox="0 0 24 24" fill="none" xmlns="http://www.w3.org/2000/svg">
<g clip-path="url(#clip0_31_20038)">
<path d="M0 0H24V24H0V0Z" fill="#1A5AFF"/>
<path fill-rule="evenodd" clip-rule="evenodd" d="M13.2793 10.2856H10.7074L6.63685 17.4389L4.02942 15.9552L8.28513 8.47664C8.49101 8.115 8.78895 7.8143 9.14869 7.60512C9.50843 7.39593 9.91714 7.2857 10.3333 7.28564H13.2788V10.2856H13.2793ZM7.71428 7.28564H4.2857V10.7142C5.19502 10.7142 6.06709 10.353 6.71007 9.71001C7.35305 9.06703 7.71428 8.19496 7.71428 7.28564ZM14.9511 8.47879C15.1569 8.11643 15.4551 7.8151 15.8152 7.6055C16.1754 7.39591 16.5847 7.28554 17.0014 7.28564H20.1428V10.2856H17.3751L13.9161 16.3782C13.7104 16.7405 13.4123 17.0418 13.0522 17.2514C12.6921 17.461 12.2829 17.5714 11.8663 17.5714H8.57013V14.5714H11.4921L14.9511 8.47879ZM18.4286 15.8571C18.8832 15.8571 19.3193 15.6765 19.6407 15.355C19.9622 15.0335 20.1428 14.5974 20.1428 14.1428C20.1428 13.6881 19.9622 13.2521 19.6407 12.9306C19.3193 12.6091 18.8832 12.4285 18.4286 12.4285C17.9739 12.4285 17.5379 12.6091 17.2164 12.9306C16.8949 13.2521 16.7143 13.6881 16.7143 14.1428C16.7143 14.5974 16.8949 15.0335 17.2164 15.355C17.5379 15.6765 17.9739 15.8571 18.4286 15.8571Z" fill="white"/>
</g>
<defs>
<clipPath id="clip0_31_20038">
<rect width="24" height="24" fill="white"/>
</clipPath>
</defs>
</svg>

<svg xmlns="http://www.w3.org/2000/svg" width="24" height="24" fill="none" viewBox="0 0 24 24"><g clip-path="url(#a)"><path fill="#1A5AFF" d="M0 0h24v24H0z"/><path fill="#fff" fill-rule="evenodd" d="M13.28 10.286h-2.573l-4.07 7.153-2.608-1.484 4.256-7.478a2.36 2.36 0 0 1 2.048-1.191h2.946v3m-5.566-3H4.286v3.428a3.43 3.43 0 0 0 3.428-3.428m7.237 1.193a2.36 2.36 0 0 1 2.05-1.193h3.142v3h-2.768l-3.459 6.092a2.36 2.36 0 0 1-2.05 1.193H8.57v-3h2.922zm3.478 7.378a1.714 1.714 0 1 0 0-3.428 1.714 1.714 0 0 0 0 3.428" clip-rule="evenodd"/></g><defs><clipPath id="a"><path fill="#fff" d="M0 0h24v24H0z"/></clipPath></defs></svg>
